assets/svg/1F34C.svg

<svg xmlns="http://www.w3.org/2000/svg" viewBox="0 0 64 64" enable-background="new 0 0 64 64"><g transform="translate(2)"><path d="m26.14 38.482c-.599-.335-20.799-11.469-23.9-13.181-1.269-.696-.926-2.424.324-2.887 11.438-4.214 23.305 2.323 25.848 14.248.279 1.308-1.01 2.515-2.272 1.82" fill="#bcab33"/><path d="m4.466 24.778c.435.227 15.15 8.09 17.406 9.291.922.497 2.112-.325 2.064-1.236-.448-8.245-9.08-12.868-18.823-10.05-1.067.304-1.569 1.497-.647 1.996" fill="#f3e7d8"/><path d="m35.93 61.07c.008-.172-.779-.832-.871-.862-2.302-.671-5.547-5.508-5.975-6.219-.985-1.641-2.909-2.707-3.4-1.89-.471.786 1.169 4.463 1.469 5.213.738 1.841 2.151 3.712 3.7 4.906 1.631 1.274 4.892 1.539 5.077-1.148" fill="#25333a"/><path d="m50.792 5.04c-.515 1.265-17.518 43.965-20.13 50.52-1.061 2.675-4.57 2.433-5.791.067-11.163-21.568-1.193-46.641 21.765-54.62 2.502-.881 5.213 1.356 4.154 4.03" fill="#e0cf35"/><path d="m34.06 25.983c3.285-8.174 7.128-16.423 10.865-24.343-21.749 8.606-30.961 32.959-20.08 53.989.475.919 1.297 1.505 2.188 1.733 3.728-22.394 2.885-21.09 7.02-31.379" fill="#bcab33"/><path d="m38.867 34.968c5.473-13.753 11.617-29.17 11.925-29.927 1.059-2.675-1.652-4.913-4.154-4.03-13.212 4.588-22.11 14.852-25.17 26.842 4.339 4.893 10.688 6.78 17.398 7.116" fill="#e8dcd5"/><path d="m38.12 16.288c2-4.337 4.179-10.11 7.173-14.763-12.465 4.805-20.871 14.751-23.824 26.327 2.626 2.961 5.99 4.804 9.723 5.891 2.115-5.904 4.31-11.775 6.928-17.455" fill="#d3c8c2"/><path d="m7.332 45.958c.618-.193 21.508-6.659 24.714-7.648 1.309-.405 1.64-2.278.75-3.064-8.102-7.189-20.371-3.403-26.726 8.277-.698 1.266-.048 2.831 1.262 2.435" fill="#bcab33"/><path d="m8.8 43.591c.471-.151 16.404-5.075 18.851-5.839.999-.308 1.249-1.736.571-2.335-6.179-5.483-15.539-2.593-20.384 6.311-.535.976-.04 2.168.962 1.863" fill="#f3e7d8"/><path d="m29.707 39.701c.67.126 23.272 4.728 26.745 5.435 1.417.294 2.279-1.243 1.62-2.41-5.981-10.612-19.254-13.327-28.921-5.881-1.053.803-.861 2.56.556 2.856" fill="#e0cf35"/><path d="m31.854 38.909c.595.117 20.684 4.208 23.77 4.833 1.261.26 2.027-1.104 1.439-2.142-5.315-9.437-17.11-11.837-25.699-5.23-.943.72-.772 2.282.49 2.539" fill="#f3e7d8"/></g></svg>

<?xml version="1.0" encoding="UTF-8" standalone="no"?>
<!-- Generator: Adobe Illustrator 16.0.0, SVG Export Plug-In . SVG Version: 6.00 Build 0)  -->

<svg
   xmlns:dc="http://purl.org/dc/elements/1.1/"
   xmlns:cc="http://creativecommons.org/ns#"
   xmlns:rdf="http://www.w3.org/1999/02/22-rdf-syntax-ns#"
   xmlns:svg="http://www.w3.org/2000/svg"
   xmlns="http://www.w3.org/2000/svg"
   xmlns:sodipodi="http://sodipodi.sourceforge.net/DTD/sodipodi-0.dtd"
   xmlns:inkscape="http://www.inkscape.org/namespaces/inkscape"
   version="1.1"
   id="Layer_1"
   x="0px"
   y="0px"
   width="64px"
   height="64px"
   viewBox="0 0 64 64"
   enable-background="new 0 0 64 64"
   xml:space="preserve"
   inkscape:version="0.48.5 r10040"
   sodipodi:docname="1F34C.svg"
   inkscape:export-filename="D:\TESTINGEMOJI\SVGTEST\1F34C.png"
   inkscape:export-xdpi="90"
   inkscape:export-ydpi="90"><metadata
   id="metadata4563"><rdf:RDF><cc:Work
       rdf:about=""><dc:format>image/svg+xml</dc:format><dc:type
         rdf:resource="http://purl.org/dc/dcmitype/StillImage" /><dc:title></dc:title></cc:Work></rdf:RDF></metadata><defs
   id="defs4561" /><sodipodi:namedview
   pagecolor="#ffffff"
   bordercolor="#666666"
   borderopacity="1"
   objecttolerance="10"
   gridtolerance="10"
   guidetolerance="10"
   inkscape:pageopacity="0"
   inkscape:pageshadow="2"
   inkscape:window-width="640"
   inkscape:window-height="480"
   id="namedview4559"
   showgrid="false"
   inkscape:zoom="3.6875"
   inkscape:cx="32"
   inkscape:cy="32"
   inkscape:window-x="713"
   inkscape:window-y="278"
   inkscape:window-maximized="0"
   inkscape:current-layer="Layer_1" />
<g
   id="g4515"
   transform="translate(2,0)">
	<path
   d="M 26.138,38.482 C 25.539,38.147 5.339,27.013 2.238,25.301 0.969,24.605 1.312,22.877 2.562,22.414 14,18.2 25.867,24.737 28.41,36.662 c 0.279,1.308 -1.006,2.515 -2.272,1.82 z"
   id="path4517"
   inkscape:connector-curvature="0"
   style="fill:#bcab33" />
</g>
<g
   id="g4519"
   transform="translate(2,0)">
	<path
   d="m 4.466,24.778 c 0.435,0.227 15.151,8.085 17.406,9.291 0.922,0.497 2.112,-0.325 2.064,-1.236 C 23.488,24.588 14.852,19.965 5.113,22.782 4.046,23.086 3.544,24.279 4.466,24.778 z"
   id="path4521"
   inkscape:connector-curvature="0"
   style="fill:#f3e7d8" />
</g>
<g
   id="g4523"
   transform="translate(2,0)">
	<path
   d="m 35.93,61.073 c 0.008,-0.172 -0.779,-0.832 -0.871,-0.862 -2.302,-0.671 -5.547,-5.508 -5.975,-6.219 -0.985,-1.641 -2.909,-2.707 -3.4,-1.89 -0.471,0.786 1.169,4.463 1.469,5.213 0.738,1.841 2.151,3.712 3.7,4.906 1.631,1.274 4.892,1.539 5.077,-1.148 z"
   id="path4525"
   inkscape:connector-curvature="0"
   style="fill:#25333a" />
</g>
<g
   id="g4527"
   transform="translate(2,0)">
	<path
   d="M 50.792,5.041 C 50.277,6.306 33.274,49.006 30.664,55.562 29.603,58.237 26.094,57.995 24.873,55.629 13.71,34.061 23.68,8.988 46.638,1.009 49.14,0.128 51.851,2.365 50.792,5.041 z"
   id="path4529"
   inkscape:connector-curvature="0"
   style="fill:#e0cf35" />
</g>
<g
   id="g4531"
   transform="translate(2,0)">
	<path
   d="M 34.061,25.983 C 37.346,17.809 41.189,9.56 44.926,1.64 23.177,10.246 13.965,34.599 24.849,55.629 c 0.475,0.919 1.297,1.505 2.188,1.733 3.728,-22.394 2.885,-21.094 7.024,-31.379 z"
   id="path4533"
   inkscape:connector-curvature="0"
   style="fill:#bcab33" />
</g>
<g
   id="g4535"
   transform="translate(2,0)">
	<path
   d="M 38.867,34.968 C 44.34,21.215 50.484,5.795 50.792,5.041 51.851,2.366 49.14,0.128 46.638,1.01 33.426,5.598 24.526,15.862 21.469,27.852 c 4.339,4.893 10.688,6.78 17.398,7.116 z"
   id="path4537"
   inkscape:connector-curvature="0"
   style="fill:#e8dcd5" />
</g>
<g
   id="g4539"
   transform="translate(2,0)">
	<path
   d="M 38.12,16.288 C 40.124,11.951 42.299,6.183 45.293,1.525 32.828,6.33 24.422,16.276 21.469,27.852 c 2.626,2.961 5.99,4.804 9.723,5.891 2.115,-5.904 4.31,-11.775 6.928,-17.455 z"
   id="path4541"
   inkscape:connector-curvature="0"
   style="fill:#d3c8c2" />
</g>
<g
   id="g4543"
   transform="translate(2,0)">
	<path
   d="M 7.332,45.958 C 7.95,45.765 28.84,39.299 32.046,38.31 c 1.309,-0.405 1.64,-2.278 0.75,-3.064 -8.102,-7.189 -20.371,-3.403 -26.726,8.277 -0.698,1.266 -0.048,2.831 1.262,2.435 z"
   id="path4545"
   inkscape:connector-curvature="0"
   style="fill:#bcab33" />
</g>
<g
   id="g4547"
   transform="translate(2,0)">
	<path
   d="M 8.8,43.591 C 9.271,43.44 25.204,38.516 27.651,37.752 28.65,37.444 28.9,36.016 28.222,35.417 22.043,29.934 12.683,32.824 7.838,41.728 7.303,42.704 7.798,43.896 8.8,43.591 z"
   id="path4549"
   inkscape:connector-curvature="0"
   style="fill:#f3e7d8" />
</g>
<g
   id="g4551"
   transform="translate(2,0)">
	<path
   d="m 29.707,39.701 c 0.67,0.126 23.272,4.728 26.745,5.435 1.417,0.294 2.279,-1.243 1.62,-2.41 -5.981,-10.612 -19.254,-13.327 -28.921,-5.881 -1.053,0.803 -0.861,2.56 0.556,2.856 z"
   id="path4553"
   inkscape:connector-curvature="0"
   style="fill:#e0cf35" />
</g>
<g
   id="g4555"
   transform="translate(2,0)">
	<path
   d="m 31.854,38.909 c 0.595,0.117 20.684,4.208 23.77,4.833 1.261,0.26 2.027,-1.104 1.439,-2.142 -5.315,-9.437 -17.109,-11.837 -25.699,-5.23 -0.943,0.72 -0.772,2.282 0.49,2.539 z"
   id="path4557"
   inkscape:connector-curvature="0"
   style="fill:#f3e7d8" />
</g>
</svg>
